X:1
T:Title
%%score ( 1 2 ) { 3 | 4 }
L:1/8
Q:1/4=87
M:6/8
K:C
V:1 treble nm="Grand Piano"
V:2 treble 
V:3 bass nm="Grand Piano"
V:4 bass 
V:1
 [EG]3 ^F2 A | [EG]3 E3 | [FA]2 [FB] dc[FA] | [FA]3 .[EG]3 | [Ge]3 [Ec]3 | [EG]3 [CE]3 | z3 .A3 | %7
w: Musik:~Peter~Friedrich~Wilhelm~Brockhaus~(1819\-1888) * *|||||||
 [CE]3 z3 | z3 .A3 | [CG]3 [Ec]3 | [DB]2 [B,D] [CE]2 [B,F] | [DF]3 .[CE]3 | [Ec]3 [_Ec]3 | %13
w: ||||||
 .c3 .G3 | [FA]2 [EG] [EG]2 [DF] | [CE]3 z3 | [Ec]3 [_Ec]3 | e2 c [EG]2 [CE] | %18
w: |||||
 [DB]2 [DA] [DG]2 [B,D] | C3 z3 |] %20
w: ||
V:2
 z3 _E3 | x6 | z3 .F3 | x6 | x6 | x6 | [CD]2 [B,F] B,-[B,G][B,F] | x6 | [B,F]3 B,2- [B,G] | x6 | %10
 x6 | x6 | x6 | E2- [EG] C2- [CE] | x6 | x6 | x6 | E3 z3 | x6 | x6 |] %20
V:3
 G,3 A,2 ^F, | G,3 C3 | C2 G, A,2[K:treble] C | C3 .C3 | C3 C3 | C3[K:bass] G,3 | A,2 G, F,E,D, | %7
w: Him mels *|hei mat~|� ber~ Ster nen~|dro ben,~|Ziel~ der~|Sehn sucht~|hier~ in~ Me * sechs~|
 C,3 z3 | G,3 F,3 | E,3 G,3 | G,2 G, G,2 G, | G,3 .G,3 | G,3 ^F,3 | G,2 E, E,2 G, | B,2 B, B,2 B, | %15
w: Land,~|Ruh platz~|de rer,~|die~ bald~ auf ge|ho ben,~|Him mels|stadt,~ * dem~ *|Glau ben~ wohl be|
 C3 z3 | G,3 ^F,3 | G,2 E, E,2 G, | G,2 F, F,2 F, | E,3 z3 |] %20
w: kannt,~|Him mels|stadt,~ * dem~ *|Glau ben~ wohl be|kannt!~|
V:4
 C,3 C,3 | C,3 C,3 | F,2 F, F,2 F, | C,3 .C,3 | C,3 C,3 | C,3 C,3 | F,,2 G,, G,,2 G,, | z6 | %8
 G,,3 G,,3 | C,3 C,3 | D,2 F, E,2 D, | B,,3 .C,3 | C,3 A,,3 | G,,3 C,3 | G,,2 G,, G,,2 G,, | %15
 C,3 z3 | C,3 A,,3 | G,,3 C,3 | G,,2 G,, G,,2 G,, | C,3 z3 |] %20

